assets/icons/ui/micgear-filled.svg

<?xml version="1.0" encoding="UTF-8" standalone="no"?>
<!DOCTYPE svg PUBLIC "-//W3C//DTD SVG 1.1//EN" "http://www.w3.org/Graphics/SVG/1.1/DTD/svg11.dtd">
<svg width="100%" height="100%" viewBox="0 0 48 48" version="1.1" xmlns="http://www.w3.org/2000/svg" xmlns:xlink="http://www.w3.org/1999/xlink" xml:space="preserve" xmlns:serif="http://www.serif.com/" style="fill-rule:evenodd;clip-rule:evenodd;stroke-linejoin:round;stroke-miterlimit:2;">
    <g transform="matrix(0.05,0,0,0.05,-0.9,47.225)">
        <path d="M307,-430C282.333,-456 270,-487 270,-523L270,-769C270,-803 282.333,-832.333 307,-857C331.667,-881.667 361.833,-894 397.5,-894C433.167,-894 463.167,-881.667 487.5,-857C511.833,-832.333 524,-803 524,-769L524,-523C524,-487 511.833,-456 487.5,-430C463.167,-404 433.167,-391 397.5,-391C361.833,-391 331.667,-404 307,-430ZM437,-78L357,-78L357,-218C279,-226 214,-258.833 162,-316.5C110,-374.167 84,-443 84,-523L164,-523C164,-459 186.5,-404.667 231.5,-360C276.5,-315.333 332,-293 398,-293C404,-293 410.5,-293.667 417.5,-295C424.5,-296.333 431,-297.333 437,-298L437,-78ZM674,-35L669,-85C655,-88.333 642.333,-93.333 631,-100C619.667,-106.667 609.333,-114.667 600,-124L557,-104L515,-171L554,-202C548.667,-214.667 546,-227.333 546,-240C546,-252.667 548.667,-265.333 554,-278L515,-309L557,-377L600,-357C610,-365.667 620.5,-373 631.5,-379C642.5,-385 655,-390 669,-394L674,-445L750,-445L757,-394C769.667,-390 781.667,-385 793,-379C804.333,-373 815,-365.667 825,-357L868,-377L912,-309L871,-278C875,-265.333 877,-252.667 877,-240C877,-227.333 875,-214.667 871,-202L912,-171L868,-104L825,-124C815,-114.667 804.333,-106.667 793,-100C781.667,-93.333 769.667,-88.333 757,-85L750,-35L674,-35ZM780.5,-172C799.5,-190.667 809,-213.5 809,-240.5C809,-267.5 799.5,-290.333 780.5,-309C761.5,-327.667 738.5,-337 711.5,-337C684.5,-337 661.667,-327.667 643,-309C624.333,-290.333 615,-267.5 615,-240.5C615,-213.5 624.333,-190.667 643,-172C661.667,-153.333 684.5,-144 711.5,-144C738.5,-144 761.5,-153.333 780.5,-172Z" style="fill-rule:nonzero;"/>
    </g>
</svg>

<svg xmlns="http://www.w3.org/2000/svg" height="48px" viewBox="0 -960 960 960" width="48px" fill="#000000"><path d="M307-430q-37-39-37-93v-246q0-51 37-88t90.5-37q53.5 0 90 37t36.5 88v246q0 54-36.5 93t-90 39q-53.5 0-90.5-39ZM437-78h-80v-140q-117-12-195-98.5T84-523h80q0 96 67.5 163T398-293q9 0 19.5-2t19.5-3v220Zm237 43-5-50q-21-5-38-15t-31-24l-43 20-42-67 39-31q-8-19-8-38t8-38l-39-31 42-68 43 20q15-13 31.5-22t37.5-15l5-51h76l7 51q19 6 36 15t32 22l43-20 44 68-41 31q6 19 6 38t-6 38l41 31-44 67-43-20q-15 14-32 24t-36 15l-7 50h-76Zm106.5-137q28.5-28 28.5-68.5T780.5-309q-28.5-28-69-28T643-309q-28 28-28 68.5t28 68.5q28 28 68.5 28t69-28Z"/></svg>
